src/pos-icons/view-sequential.svg

<svg height="24" viewBox="0 0 24 24" width="24" xmlns="http://www.w3.org/2000/svg"><path d="m3 4h18v4h-18zm0 6h18v4h-18zm0 6h18v4h-18z"/></svg>

<?xml version="1.0" encoding="UTF-8"?><!DOCTYPE svg PUBLIC "-//W3C//DTD SVG 1.1//EN" "http://www.w3.org/Graphics/SVG/1.1/DTD/svg11.dtd"><svg xmlns="http://www.w3.org/2000/svg" xmlns:xlink="http://www.w3.org/1999/xlink" version="1.1" id="mdi-view-sequential" width="24" height="24" viewBox="0 0 24 24"><path d="M3,4H21V8H3V4M3,10H21V14H3V10M3,16H21V20H3V16Z" /></svg>
